src/public/images/header-background-lines.svg

<svg width="1251" height="714" viewBox="0 0 1251 714" fill="none" xmlns="http://www.w3.org/2000/svg">
<g opacity="0.4">
<path d="M605.897 297.141C533.151 331.808 461.02 349.918 403.231 351.208C345.338 352.501 302.27 336.926 286.943 304.764C271.617 272.602 286.646 229.34 324.114 185.189C361.515 141.116 421.014 96.4975 493.76 61.8305C566.505 27.1635 638.637 9.05336 696.426 7.76328C754.318 6.47088 797.387 22.046 812.713 54.2079C828.04 86.3697 813.011 129.631 775.543 173.783C738.142 217.856 678.643 262.474 605.897 297.141Z" stroke="white" stroke-width="2"/>
<path d="M673.024 438.003C513.732 513.914 355.733 553.597 229.08 556.425C102.323 559.254 7.39268 525.181 -26.4709 454.121C-60.3345 383.061 -27.007 287.867 55.0298 191.196C137 94.6036 267.339 -3.12075 426.631 -79.0317C585.924 -154.943 743.922 -194.626 870.576 -197.453C997.333 -200.283 1092.26 -166.209 1126.13 -95.1496C1159.99 -24.0897 1126.66 71.1048 1044.63 167.776C962.656 264.368 832.317 362.092 673.024 438.003Z" stroke="white" stroke-width="2"/>
<path d="M644.151 377.415C522.085 435.586 401.02 465.99 303.987 468.156C206.85 470.324 134.228 444.207 108.337 389.879C82.4468 335.55 107.904 262.693 170.77 188.612C233.57 114.61 333.439 39.7278 455.505 -18.443C577.572 -76.6138 698.636 -107.018 795.67 -109.184C892.806 -111.352 965.429 -85.2356 991.319 -30.9069C1017.21 23.4219 991.753 96.2787 928.886 170.36C866.087 244.362 766.218 319.244 644.151 377.415Z" stroke="white" stroke-width="2"/>
</g>
</svg>

<svg xmlns="http://www.w3.org/2000/svg" width="1251" height="714" fill="none"><g stroke="#fff" stroke-width="2" opacity=".4"><path d="M605.897 297.141c-72.746 34.667-144.877 52.777-202.666 54.067-57.893 1.293-100.961-14.282-116.288-46.444-15.326-32.162-.297-75.424 37.171-119.575 37.401-44.073 96.9-88.691 169.646-123.358C566.505 27.163 638.637 9.053 696.426 7.763c57.892-1.292 100.961 14.283 116.287 46.445 15.327 32.162.298 75.423-37.17 119.575-37.401 44.073-96.9 88.691-169.646 123.358Z"/><path d="M673.024 438.003C513.732 513.914 355.733 553.597 229.08 556.425 102.323 559.254 7.393 525.181-26.47 454.121c-33.864-71.06-.537-166.254 81.5-262.925C137 94.604 267.339-3.121 426.63-79.032c159.293-75.911 317.291-115.594 443.945-118.421 126.757-2.83 221.684 31.244 255.554 102.303 33.86 71.06.53 166.255-81.5 262.926-81.974 96.592-212.313 194.316-371.606 270.227Z"/><path d="M644.151 377.415c-122.066 58.171-243.131 88.575-340.164 90.741-97.137 2.168-169.759-23.949-195.65-78.277-25.89-54.329-.433-127.186 62.433-201.267 62.8-74.002 162.669-148.884 284.735-207.055 122.067-58.17 243.131-88.575 340.165-90.741 97.136-2.168 169.759 23.948 195.649 78.277 25.891 54.329.434 127.186-62.433 201.267-62.799 74.002-162.668 148.884-284.735 207.055Z"/></g></svg>
